X: 17526
T: Hills Of Tara, The
R: barndance
M: 4/4
K: Gmajor
Bc|d2 G2 GB AB|c2 E2 E2 AG|FGAB cBcd|e2 d2 B3c|
d2 G2 GB AB|c2 E2 E2 AG|FGAB cADF|A2 G2 G2:|
|:Bd|g4 f3d|efed A2 AG|FGAB cBcd|e2 d2 B3d|
g4 f3d|efed A2 AG|FGAB cADF|A2 G2 G2:|

